src/lib/packages/icons/src/assets/filled/chart-trend-down.svg

<svg width="24" height="24" viewBox="0 0 24 24" fill="none" xmlns="http://www.w3.org/2000/svg">
<path d="M21 21H4.5C2.958 21 2 20.042 2 18.5V4.00004C2 3.44804 2.448 3.00004 3 3.00004C3.552 3.00004 4 3.44804 4 4.00004V18.5C4 18.949 4.051 19 4.5 19H21C21.552 19 22 19.448 22 20C22 20.552 21.552 21 21 21ZM14 16V12C14 11.448 13.552 11 13 11C12.448 11 12 11.448 12 12V16C12 16.552 12.448 17 13 17C13.552 17 14 16.552 14 16ZM8 17C7.448 17 7 16.552 7 16V10C7 9.44804 7.448 9.00004 8 9.00004C8.552 9.00004 9 9.44804 9 10V16C9 16.552 8.552 17 8 17ZM18 17C17.448 17 17 16.552 17 16V14C17 13.448 17.448 13 18 13C18.552 13 19 13.448 19 14V16C19 16.552 18.552 17 18 17ZM19 5.00004C19 4.44804 18.552 4.00004 18 4.00004C17.448 4.00004 17 4.44804 17 5.00004V5.736L15.082 3.81803C14.204 2.94003 12.772 2.93903 11.893 3.81803L10.743 4.96805C10.645 5.06605 10.479 5.06605 10.382 4.96805L8.70697 3.29301C8.31597 2.90201 7.68403 2.90201 7.29303 3.29301C6.90203 3.68401 6.90203 4.31607 7.29303 4.70707L8.96802 6.382C9.84702 7.262 11.279 7.262 12.157 6.382L13.307 5.23209C13.432 5.10709 13.541 5.10509 13.668 5.23209L15.586 7.15006H15C14.448 7.15006 14 7.59806 14 8.15006C14 8.70206 14.448 9.15006 15 9.15006H18C18.13 9.15006 18.26 9.12304 18.382 9.07304C18.626 8.97104 18.821 8.77702 18.923 8.53202C18.974 8.41002 19 8.28006 19 8.15006V5.00004Z" fill="currentColor"/>
</svg>

<svg xmlns="http://www.w3.org/2000/svg" width="24" height="24" fill="none"><path fill="currentColor" d="M21 21H4.5C2.958 21 2 20.042 2 18.5V4a1 1 0 0 1 2 0v14.5c0 .449.051.5.5.5H21a1 1 0 0 1 0 2Zm-7-5v-4a1 1 0 0 0-2 0v4a1 1 0 0 0 2 0Zm-6 1a1 1 0 0 1-1-1v-6a1 1 0 0 1 2 0v6a1 1 0 0 1-1 1Zm10 0a1 1 0 0 1-1-1v-2a1 1 0 0 1 2 0v2a1 1 0 0 1-1 1Zm1-12a1 1 0 0 0-2 0v.736l-1.918-1.918a2.259 2.259 0 0 0-3.189 0l-1.15 1.15a.258.258 0 0 1-.361 0L8.707 3.293a.999.999 0 1 0-1.414 1.414l1.675 1.675c.879.88 2.311.88 3.189 0l1.15-1.15c.125-.125.234-.127.361 0l1.918 1.918H15a1 1 0 0 0 0 2h3a1.006 1.006 0 0 0 1-1V5Z"/></svg>
